X:0914
T:"Off She Goes!"       (jig)      0914
C:Unattributed
N:Typesetting....typesetting.... wurra,  wurra, wurra!
N:Added anacrucis to make scansion work
B:O'Neill's Music Of Ireland (The 1850) Lyon & Healy, Chicago, 1903 edition
Z:FROM O'NEILL'S TO NOTEWORTHY, FROM NOTEWORTHY TO ABC, MIDI AND .TXT BY VINCE
BRENNAN June 2003 (HTTP://WWW.SOSYOURMOM.COM)
I:abc2nwc
M:6/8
L:1/8
K:D
A|F2A G2B|ABc d3|F2A G2B|AFD E2D|
F2A G2B|ABc d2e|f2d g2f|edc d2:|
|:e|faf def|gbg efg|faf def|ecA A2g|
faf def|gbg efg|f2d g2f|edc d2:|
